Newaita-dark/apps/64/redshift.svg

<?xml version="1.0" encoding="UTF-8"?>
<svg xmlns="http://www.w3.org/2000/svg" xmlns:xlink="http://www.w3.org/1999/xlink" width="64pt" height="64pt" viewBox="0 0 64 64" version="1.1">
<defs>
<linearGradient id="linear0" gradientUnits="userSpaceOnUse" x1="317.5" y1="127.666656" x2="317.5" y2="-167.166016" gradientTransform="matrix(0.125012,0,0,0.125012,1.323043,26.877566)">
<stop offset="0" style="stop-color:rgb(69.019608%,74.509804%,77.254902%);stop-opacity:1;"/>
<stop offset="1" style="stop-color:rgb(81.176471%,84.705882%,86.27451%);stop-opacity:1;"/>
</linearGradient>
<radialGradient id="radial0" gradientUnits="userSpaceOnUse" cx="450.908936" cy="189.579361" fx="450.908936" fy="189.579361" r="21.166656" gradientTransform="matrix(0.000000348341,-0.156265,-0.281277,-0.000000203077,69.862187,127.190659)">
<stop offset="0" style="stop-color:rgb(0%,0%,0%);stop-opacity:0.313725;"/>
<stop offset="0.222222" style="stop-color:rgb(0%,0%,0%);stop-opacity:0.27451;"/>
<stop offset="1" style="stop-color:rgb(0%,0%,0%);stop-opacity:0;"/>
</radialGradient>
<radialGradient id="radial1" gradientUnits="userSpaceOnUse" cx="450.908936" cy="189.579361" fx="450.908936" fy="189.579361" r="21.166656" gradientTransform="matrix(-0.000000348341,0.156265,0.281277,0.000000203077,-35.463052,-15.054964)">
<stop offset="0" style="stop-color:rgb(0%,0%,0%);stop-opacity:0.313725;"/>
<stop offset="0.222222" style="stop-color:rgb(0%,0%,0%);stop-opacity:0.27451;"/>
<stop offset="1" style="stop-color:rgb(0%,0%,0%);stop-opacity:0;"/>
</radialGradient>
<radialGradient id="radial2" gradientUnits="userSpaceOnUse" cx="450.908936" cy="189.579361" fx="450.908936" fy="189.579361" r="21.166656" gradientTransform="matrix(-0.000000348341,-0.156265,0.281277,-0.000000203077,-35.463052,127.190659)">
<stop offset="0" style="stop-color:rgb(0%,0%,0%);stop-opacity:0.313725;"/>
<stop offset="0.222222" style="stop-color:rgb(0%,0%,0%);stop-opacity:0.27451;"/>
<stop offset="1" style="stop-color:rgb(0%,0%,0%);stop-opacity:0;"/>
</radialGradient>
<radialGradient id="radial3" gradientUnits="userSpaceOnUse" cx="450.908936" cy="189.579361" fx="450.908936" fy="189.579361" r="21.166656" gradientTransform="matrix(0.000000348341,0.156265,-0.281277,0.000000203077,69.862183,-15.054965)">
<stop offset="0" style="stop-color:rgb(0%,0%,0%);stop-opacity:0.313725;"/>
<stop offset="0.222222" style="stop-color:rgb(0%,0%,0%);stop-opacity:0.27451;"/>
<stop offset="1" style="stop-color:rgb(0%,0%,0%);stop-opacity:0;"/>
</radialGradient>
<linearGradient id="linear1" gradientUnits="userSpaceOnUse" x1="169.333328" y1="233.5" x2="169.333328" y2="222.916672" gradientTransform="matrix(1,0,0,1,-31.75,0)">
<stop offset="0" style="stop-color:rgb(100%,87.843137%,69.803922%);stop-opacity:1;"/>
<stop offset="1" style="stop-color:rgb(87.843137%,87.843137%,87.843137%);stop-opacity:1;"/>
</linearGradient>
<linearGradient id="linear2" gradientUnits="userSpaceOnUse" x1="169.333328" y1="212.333328" x2="169.333328" y2="64.166664" gradientTransform="matrix(1,0,0,1,-31.75,10.583323)">
<stop offset="0" style="stop-color:rgb(100%,87.843137%,69.803922%);stop-opacity:1;"/>
<stop offset="1" style="stop-color:rgb(87.843137%,87.843137%,87.843137%);stop-opacity:1;"/>
</linearGradient>
<linearGradient id="linear3" gradientUnits="userSpaceOnUse" x1="640" y1="1215.118164" x2="640" y2="375.118103" gradientTransform="matrix(0.0330761,0,0,0.0330761,-3.969129,1.323073)">
<stop offset="0" style="stop-color:rgb(95.686275%,26.27451%,21.176471%);stop-opacity:1;"/>
<stop offset="1" style="stop-color:rgb(93.72549%,32.54902%,31.372549%);stop-opacity:1;"/>
</linearGradient>
<linearGradient id="linear4" gradientUnits="userSpaceOnUse" x1="670" y1="1395.118164" x2="680" y2="1325.118164" gradientTransform="matrix(0.264583,0,0,0.264583,-31.75,-215)">
<stop offset="0" style="stop-color:rgb(100%,87.843137%,69.803922%);stop-opacity:1;"/>
<stop offset="1" style="stop-color:rgb(87.843137%,87.843137%,87.843137%);stop-opacity:1;"/>
</linearGradient>
<linearGradient id="linear5" gradientUnits="userSpaceOnUse" x1="640" y1="1555.118164" x2="660" y2="1475.118164" gradientTransform="matrix(0.264583,0,0,0.264583,-31.75,-215)">
<stop offset="0" style="stop-color:rgb(100%,87.843137%,69.803922%);stop-opacity:1;"/>
<stop offset="1" style="stop-color:rgb(87.843137%,87.843137%,87.843137%);stop-opacity:1;"/>
</linearGradient>
</defs>
<g id="surface1">
<path style=" stroke:none;fill-rule:nonzero;fill:url(#linear0);" d="M 41.015625 5.792969 C 51.242188 5.792969 59.535156 14.085938 59.535156 24.316406 C 59.535156 34.542969 51.242188 42.835938 41.015625 42.835938 C 30.785156 42.835938 22.492188 34.542969 22.492188 24.316406 C 22.492188 14.085938 30.785156 5.792969 41.015625 5.792969 Z M 41.015625 5.792969 "/>
<path style=" stroke:none;fill-rule:nonzero;fill:rgb(100%,100%,100%);fill-opacity:0.392157;" d="M 41.015625 5.792969 C 30.753906 5.792969 22.492188 14.054688 22.492188 24.316406 C 22.492188 24.425781 22.492188 24.535156 22.496094 24.644531 C 22.671875 14.539062 30.863281 6.453125 41.015625 6.453125 C 51.164062 6.453125 59.359375 14.539062 59.535156 24.644531 C 59.535156 24.535156 59.535156 24.425781 59.535156 24.316406 C 59.535156 14.054688 51.277344 5.792969 41.015625 5.792969 Z M 41.015625 5.792969 "/>
<path style=" stroke:none;fill-rule:nonzero;fill:rgb(0%,0%,0%);fill-opacity:0.235294;" d="M 41.015625 42.835938 C 30.753906 42.835938 22.492188 34.578125 22.492188 24.316406 C 22.492188 24.203125 22.492188 24.09375 22.496094 23.984375 C 22.671875 34.089844 30.863281 42.175781 41.015625 42.175781 C 51.164062 42.175781 59.359375 34.089844 59.535156 23.984375 C 59.535156 24.09375 59.535156 24.203125 59.535156 24.316406 C 59.535156 34.578125 51.277344 42.835938 41.015625 42.835938 Z M 41.015625 42.835938 "/>
<path style=" stroke:none;fill-rule:nonzero;fill:rgb(20%,20%,20%);fill-opacity:1;" d="M 41.015625 5.605469 C 30.652344 5.605469 22.304688 13.953125 22.304688 24.316406 C 22.304688 34.675781 30.652344 43.023438 41.015625 43.023438 C 51.375 43.023438 59.722656 34.675781 59.722656 24.316406 C 59.722656 13.953125 51.375 5.605469 41.015625 5.605469 Z M 41.015625 5.980469 C 51.175781 5.980469 59.347656 14.152344 59.347656 24.316406 C 59.347656 34.476562 51.175781 42.648438 41.015625 42.648438 C 30.851562 42.648438 22.679688 34.476562 22.679688 24.316406 C 22.679688 14.152344 30.851562 5.980469 41.015625 5.980469 Z M 41.015625 5.980469 "/>
<path style=" stroke:none;fill-rule:nonzero;fill:url(#radial0);" d="M 17.199219 56.066406 L 22.492188 56.066406 L 22.492188 53.421875 L 17.199219 53.421875 Z M 17.199219 56.066406 "/>
<path style=" stroke:none;fill-rule:nonzero;fill:url(#radial1);" d="M 17.199219 56.066406 L 11.90625 56.066406 L 11.90625 58.714844 L 17.199219 58.714844 Z M 17.199219 56.066406 "/>
<path style=" stroke:none;fill-rule:nonzero;fill:url(#radial2);" d="M 17.199219 56.066406 L 11.90625 56.066406 L 11.90625 53.421875 L 17.199219 53.421875 Z M 17.199219 56.066406 "/>
<path style=" stroke:none;fill-rule:nonzero;fill:url(#radial3);" d="M 17.199219 56.066406 L 22.492188 56.066406 L 22.492188 58.714844 L 17.199219 58.714844 Z M 17.199219 56.066406 "/>
<path style="fill-rule:nonzero;fill:url(#linear1);stroke-width:3;stroke-linecap:round;stroke-linejoin:round;stroke:rgb(12.941177%,12.941177%,12.941177%);stroke-opacity:1;stroke-miterlimit:4;" d="M 137.580612 191.179962 C 149.266996 191.179962 158.734842 196.773178 158.734842 203.710015 L 158.734842 220.958368 C 158.734842 227.895206 149.266996 233.488421 137.580612 233.488421 C 125.894228 233.488421 116.426382 227.895206 116.426382 220.958368 L 116.426382 203.710015 C 116.426382 196.773178 125.894228 191.179962 137.580612 191.179962 Z M 137.580612 191.179962 " transform="matrix(0.125012,0,0,0.125012,0,26.877566)"/>
<path style="fill-rule:nonzero;fill:url(#linear2);stroke-width:3;stroke-linecap:round;stroke-linejoin:round;stroke:rgb(12.941177%,12.941177%,12.941177%);stroke-opacity:1;stroke-miterlimit:4;" d="M 136.611954 74.75358 L 138.580516 74.75358 C 161.390838 74.75358 179.920318 79.503126 179.920318 85.346318 L 179.920318 212.334192 C 179.920318 218.177384 161.390838 222.92693 138.580516 222.92693 L 136.611954 222.92693 C 113.770385 222.92693 95.240905 218.177384 95.240905 212.334192 L 95.240905 85.346318 C 95.240905 79.503126 113.770385 74.75358 136.611954 74.75358 Z M 136.611954 74.75358 " transform="matrix(0.125012,0,0,0.125012,0,26.877566)"/>
<path style=" stroke:none;fill-rule:nonzero;fill:url(#linear3);" d="M 17.199219 13.730469 C 9.871094 13.730469 3.96875 19.632812 3.96875 26.960938 C 3.96875 31.882812 6.628906 36.160156 10.597656 38.441406 C 10.78125 40.164062 13.011719 41.515625 15.753906 41.515625 L 18.644531 41.515625 C 21.386719 41.515625 23.617188 40.164062 23.800781 38.441406 C 27.769531 36.160156 30.429688 31.882812 30.429688 26.960938 C 30.429688 19.632812 24.527344 13.730469 17.199219 13.730469 Z M 17.199219 13.730469 "/>
<path style="fill-rule:nonzero;fill:url(#linear4);stroke-width:3;stroke-linecap:round;stroke-linejoin:round;stroke:rgb(12.941177%,12.941177%,12.941177%);stroke-opacity:1;stroke-miterlimit:4;" d="M 95.240905 122.374032 C 89.397713 122.374032 84.679414 127.092332 84.679414 132.966771 C 84.679414 138.809963 89.397713 143.528262 95.240905 143.528262 L 179.920318 164.713739 C 185.794757 164.713739 190.513057 159.99544 190.513057 154.121001 C 190.513057 148.246562 185.794757 143.528262 179.920318 143.528262 Z M 95.240905 122.374032 " transform="matrix(0.125012,0,0,0.125012,0,26.877566)"/>
<path style="fill-rule:nonzero;fill:url(#linear5);stroke-width:3;stroke-linecap:round;stroke-linejoin:round;stroke:rgb(12.941177%,12.941177%,12.941177%);stroke-opacity:1;stroke-miterlimit:4;" d="M 95.240905 164.713739 C 89.397713 164.713739 84.679414 169.432039 84.679414 175.306478 C 84.679414 181.14967 89.397713 185.867969 95.240905 185.867969 L 179.920318 207.053446 C 185.794757 207.053446 190.513057 202.335146 190.513057 196.460707 C 190.513057 190.586268 185.794757 185.867969 179.920318 185.867969 Z M 95.240905 164.713739 " transform="matrix(0.125012,0,0,0.125012,0,26.877566)"/>
<path style=" stroke:none;fill-rule:nonzero;fill:rgb(100%,100%,100%);fill-opacity:0.392157;" d="M 17.199219 13.730469 C 9.871094 13.730469 3.96875 19.632812 3.96875 26.960938 C 3.96875 27.070312 3.972656 27.175781 3.972656 27.28125 C 4.152344 20.113281 9.984375 14.390625 17.199219 14.390625 C 24.414062 14.390625 30.246094 20.113281 30.425781 27.28125 C 30.429688 27.175781 30.429688 27.070312 30.429688 26.960938 C 30.429688 19.632812 24.527344 13.730469 17.199219 13.730469 Z M 17.199219 13.730469 "/>
<path style=" stroke:none;fill-rule:nonzero;fill:rgb(0%,0%,0%);fill-opacity:0.235294;" d="M 3.96875 26.609375 C 3.96875 26.667969 3.96875 26.726562 3.96875 26.789062 C 3.96875 31.710938 6.628906 35.988281 10.597656 38.265625 C 10.78125 39.988281 13.011719 41.339844 15.753906 41.339844 L 18.644531 41.339844 C 21.386719 41.339844 23.617188 39.988281 23.800781 38.265625 C 27.769531 35.988281 30.429688 31.710938 30.429688 26.789062 C 30.429688 26.726562 30.429688 26.667969 30.429688 26.609375 C 30.375 31.46875 27.730469 35.683594 23.800781 37.941406 C 23.617188 39.664062 21.386719 41.015625 18.644531 41.015625 L 15.753906 41.015625 C 13.011719 41.015625 10.78125 39.664062 10.597656 37.941406 C 6.667969 35.683594 4.023438 31.46875 3.96875 26.609375 Z M 3.96875 26.609375 "/>
<path style=" stroke:none;fill-rule:nonzero;fill:rgb(12.941177%,12.941177%,12.941177%);fill-opacity:1;" d="M 17.199219 13.542969 C 9.769531 13.542969 3.78125 19.53125 3.78125 26.960938 C 3.78125 31.921875 6.453125 36.234375 10.4375 38.558594 C 10.570312 39.449219 11.195312 40.230469 12.121094 40.785156 C 13.078125 41.359375 14.351562 41.703125 15.753906 41.703125 L 18.644531 41.703125 C 20.046875 41.703125 21.320312 41.359375 22.277344 40.785156 C 23.203125 40.230469 23.828125 39.449219 23.964844 38.558594 C 27.949219 36.234375 30.617188 31.921875 30.617188 26.960938 C 30.617188 19.53125 24.628906 13.542969 17.199219 13.542969 Z M 17.199219 13.917969 C 24.429688 13.917969 30.242188 19.730469 30.242188 26.960938 C 30.242188 31.816406 27.621094 36.03125 23.707031 38.277344 C 23.65625 38.308594 23.621094 38.359375 23.617188 38.417969 C 23.53125 39.207031 22.972656 39.929688 22.085938 40.460938 C 21.199219 40.996094 19.984375 41.328125 18.644531 41.328125 L 15.753906 41.328125 C 14.414062 41.328125 13.203125 40.996094 12.3125 40.460938 C 11.425781 39.929688 10.867188 39.207031 10.785156 38.417969 C 10.777344 38.359375 10.742188 38.308594 10.691406 38.277344 C 6.78125 36.03125 4.15625 31.816406 4.15625 26.960938 C 4.15625 19.730469 9.96875 13.917969 17.199219 13.917969 Z M 17.199219 13.917969 "/>
<path style=" stroke:none;fill-rule:evenodd;fill:rgb(100%,67.058825%,56.862748%);fill-opacity:1;" d="M 10.332031 23.980469 L 13.046875 38.902344 L 13.414062 38.835938 L 10.835938 24.648438 L 13.214844 25.839844 L 17.199219 24.511719 L 21.183594 25.839844 L 23.5625 24.648438 L 20.984375 38.835938 L 21.351562 38.902344 L 24.066406 23.980469 L 21.15625 25.433594 L 17.199219 24.117188 L 13.246094 25.433594 Z M 10.332031 23.980469 "/>
<path style="fill-rule:nonzero;fill:rgb(50.588238%,83.137256%,98.039216%);fill-opacity:0.235294;stroke-width:11.338583;stroke-linecap:round;stroke-linejoin:round;stroke:rgb(12.941177%,12.941177%,12.941177%);stroke-opacity:1;stroke-miterlimit:4;" d="M 440.036742 1175.084697 C 417.834137 1175.084697 400.001193 1200.712172 400.001193 1232.480794 L 400.001193 1237.795247 C 400.001193 1239.330534 400.001193 1240.983919 400.119292 1242.519206 C 422.676194 1250.549936 448.539867 1255.155795 476.293124 1255.155795 L 563.686358 1255.155795 C 591.439614 1255.155795 617.303288 1250.549936 639.86019 1242.519206 C 639.978289 1240.983919 639.978289 1239.330534 639.978289 1237.795247 L 639.978289 1232.480794 C 639.978289 1200.712172 622.145345 1175.084697 599.94274 1175.084697 Z M 440.036742 1175.084697 " transform="matrix(0.0330761,0,0,0.0330761,0,0)"/>
</g>
</svg>

<svg xmlns="http://www.w3.org/2000/svg" width="64pt" height="64pt" viewBox="0 0 64 64"><defs><linearGradient id="a" gradientUnits="userSpaceOnUse" x1="317.5" y1="127.667" x2="317.5" y2="-167.166" gradientTransform="translate(1.323 26.878) scale(.12501)"><stop offset="0" stop-color="#b0bec5"/><stop offset="1" stop-color="#cfd8dc"/></linearGradient><radialGradient id="b" gradientUnits="userSpaceOnUse" cx="450.909" cy="189.579" fx="450.909" fy="189.579" r="21.167" gradientTransform="matrix(0 -.15626 -.28128 0 69.862 127.19)"><stop offset="0" stop-opacity=".314"/><stop offset=".222" stop-opacity=".275"/><stop offset="1" stop-opacity="0"/></radialGradient><radialGradient id="c" gradientUnits="userSpaceOnUse" cx="450.909" cy="189.579" fx="450.909" fy="189.579" r="21.167" gradientTransform="matrix(0 .15626 .28128 0 -35.463 -15.055)"><stop offset="0" stop-opacity=".314"/><stop offset=".222" stop-opacity=".275"/><stop offset="1" stop-opacity="0"/></radialGradient><radialGradient id="d" gradientUnits="userSpaceOnUse" cx="450.909" cy="189.579" fx="450.909" fy="189.579" r="21.167" gradientTransform="matrix(0 -.15626 .28128 0 -35.463 127.19)"><stop offset="0" stop-opacity=".314"/><stop offset=".222" stop-opacity=".275"/><stop offset="1" stop-opacity="0"/></radialGradient><radialGradient id="e" gradientUnits="userSpaceOnUse" cx="450.909" cy="189.579" fx="450.909" fy="189.579" r="21.167" gradientTransform="matrix(0 .15626 -.28128 0 69.862 -15.055)"><stop offset="0" stop-opacity=".314"/><stop offset=".222" stop-opacity=".275"/><stop offset="1" stop-opacity="0"/></radialGradient><linearGradient id="f" gradientUnits="userSpaceOnUse" x1="169.333" y1="233.5" x2="169.333" y2="222.917" gradientTransform="translate(-31.75)"><stop offset="0" stop-color="#ffe0b2"/><stop offset="1" stop-color="#e0e0e0"/></linearGradient><linearGradient id="g" gradientUnits="userSpaceOnUse" x1="169.333" y1="212.333" x2="169.333" y2="64.167" gradientTransform="translate(-31.75 10.583)"><stop offset="0" stop-color="#ffe0b2"/><stop offset="1" stop-color="#e0e0e0"/></linearGradient><linearGradient id="h" gradientUnits="userSpaceOnUse" x1="640" y1="1215.118" x2="640" y2="375.118" gradientTransform="matrix(.03308 0 0 .03308 -3.97 1.323)"><stop offset="0" stop-color="#f44336"/><stop offset="1" stop-color="#ef5350"/></linearGradient><linearGradient id="i" gradientUnits="userSpaceOnUse" x1="670" y1="1395.118" x2="680" y2="1325.118" gradientTransform="matrix(.26458 0 0 .26458 -31.75 -215)"><stop offset="0" stop-color="#ffe0b2"/><stop offset="1" stop-color="#e0e0e0"/></linearGradient><linearGradient id="j" gradientUnits="userSpaceOnUse" x1="640" y1="1555.118" x2="660" y2="1475.118" gradientTransform="matrix(.26458 0 0 .26458 -31.75 -215)"><stop offset="0" stop-color="#ffe0b2"/><stop offset="1" stop-color="#e0e0e0"/></linearGradient></defs><path d="M41.016 5.793c10.226 0 18.52 8.293 18.52 18.523 0 10.227-8.294 18.52-18.52 18.52-10.23 0-18.524-8.293-18.524-18.52 0-10.23 8.293-18.523 18.524-18.523zm0 0" fill="url(#a)"/><path d="M41.016 5.793a18.483 18.483 0 0 0-18.52 18.852 18.481 18.481 0 0 1 18.52-18.192 18.484 18.484 0 0 1 18.52 18.192v-.329a18.48 18.48 0 0 0-18.52-18.523zm0 0" fill="#fff" fill-opacity=".392"/><path d="M41.016 42.836a18.48 18.48 0 0 1-18.524-18.52c0-.113 0-.222.004-.332a18.481 18.481 0 0 0 18.52 18.192 18.484 18.484 0 0 0 18.52-18.192v.332a18.477 18.477 0 0 1-18.52 18.52zm0 0" fill-opacity=".235"/><path d="M41.016 5.605a18.673 18.673 0 0 0-18.711 18.711 18.672 18.672 0 0 0 18.71 18.707 18.672 18.672 0 0 0 18.708-18.707 18.672 18.672 0 0 0-18.707-18.71zm0 .375a18.287 18.287 0 0 1 18.332 18.336 18.287 18.287 0 0 1-18.332 18.332A18.287 18.287 0 0 1 22.68 24.316 18.288 18.288 0 0 1 41.016 5.98zm0 0" fill="#333"/><path d="M17.2 56.066h5.292v-2.644H17.2zm0 0" fill="url(#b)"/><path d="M17.2 56.066h-5.294v2.649H17.2zm0 0" fill="url(#c)"/><path d="M17.2 56.066h-5.294v-2.644H17.2zm0 0" fill="url(#d)"/><path d="M17.2 56.066h5.292v2.649H17.2zm0 0" fill="url(#e)"/><path d="M137.58 191.18c11.687 0 21.155 5.593 21.155 12.53v17.248c0 6.937-9.468 12.53-21.154 12.53-11.687 0-21.155-5.593-21.155-12.53V203.71c0-6.937 9.468-12.53 21.155-12.53zm0 0" transform="translate(0 26.878) scale(.12501)" fill="url(#f)" stroke-width="3" stroke-linecap="round" stroke-linejoin="round" stroke="#212121"/><path d="M136.612 74.754h1.969c22.81 0 41.34 4.75 41.34 10.592v126.988c0 5.843-18.53 10.593-41.34 10.593h-1.969c-22.842 0-41.371-4.75-41.371-10.593V85.346c0-5.843 18.53-10.592 41.371-10.592zm0 0" transform="translate(0 26.878) scale(.12501)" fill="url(#g)" stroke-width="3" stroke-linecap="round" stroke-linejoin="round" stroke="#212121"/><path d="M17.2 13.73A13.203 13.203 0 0 0 3.968 26.96c0 4.923 2.66 9.2 6.629 11.481.183 1.723 2.414 3.075 5.156 3.075h2.89c2.743 0 4.973-1.352 5.157-3.075a13.203 13.203 0 0 0 6.629-11.48c0-7.328-5.903-13.23-13.23-13.23zm0 0" fill="url(#h)"/><path d="M95.24 122.374c-5.842 0-10.56 4.718-10.56 10.593a10.548 10.548 0 0 0 10.56 10.561l84.68 21.186a10.562 10.562 0 0 0 10.593-10.593 10.562 10.562 0 0 0-10.593-10.593zm0 0" transform="translate(0 26.878) scale(.12501)" fill="url(#i)" stroke-width="3" stroke-linecap="round" stroke-linejoin="round" stroke="#212121"/><path d="M95.24 164.714c-5.842 0-10.56 4.718-10.56 10.592a10.548 10.548 0 0 0 10.56 10.562l84.68 21.185a10.562 10.562 0 0 0 10.593-10.592 10.562 10.562 0 0 0-10.593-10.593zm0 0" transform="translate(0 26.878) scale(.12501)" fill="url(#j)" stroke-width="3" stroke-linecap="round" stroke-linejoin="round" stroke="#212121"/><path d="M17.2 13.73A13.203 13.203 0 0 0 3.968 26.96c0 .11.004.216.004.321a13.204 13.204 0 0 1 13.226-12.89 13.204 13.204 0 0 1 13.227 12.89 13.203 13.203 0 0 0-13.227-13.55zm0 0" fill="#fff" fill-opacity=".392"/><path d="M3.969 26.61v.18c0 4.92 2.66 9.198 6.629 11.476.183 1.722 2.414 3.074 5.156 3.074h2.89c2.743 0 4.973-1.352 5.157-3.074a13.192 13.192 0 0 0 6.629-11.477v-.18a13.204 13.204 0 0 1-6.63 11.332c-.183 1.723-2.413 3.075-5.155 3.075h-2.891c-2.742 0-4.973-1.352-5.156-3.075a13.204 13.204 0 0 1-6.63-11.332zm0 0" fill-opacity=".235"/><path d="M17.2 13.543A13.394 13.394 0 0 0 3.78 26.961c0 4.96 2.672 9.273 6.656 11.598.133.89.758 1.671 1.684 2.226.957.574 2.23.918 3.633.918h2.89c1.403 0 2.676-.344 3.633-.918.926-.555 1.551-1.336 1.688-2.226a13.388 13.388 0 0 0 6.652-11.598c0-7.43-5.988-13.418-13.418-13.418zm0 .375c7.23 0 13.042 5.812 13.042 13.043 0 4.855-2.62 9.07-6.535 11.316a.181.181 0 0 0-.09.141c-.086.789-.644 1.512-1.531 2.043-.887.535-2.102.867-3.441.867h-2.891c-1.34 0-2.55-.332-3.441-.867-.887-.531-1.446-1.254-1.528-2.043a.197.197 0 0 0-.094-.14A13.01 13.01 0 0 1 4.156 26.96c0-7.23 5.813-13.043 13.043-13.043zm0 0" fill="#212121"/><path d="M10.332 23.98l2.715 14.922.367-.066-2.578-14.188 2.379 1.192 3.984-1.328 3.985 1.328 2.378-1.192-2.578 14.188.368.066 2.714-14.922-2.91 1.454-3.957-1.317-3.953 1.317zm0 0" fill-rule="evenodd" fill="#ffab91"/><path d="M14.555 38.867c-.735 0-1.325.848-1.325 1.899v.175c0 .051 0 .106.004.157a7.537 7.537 0 0 0 2.52.418h2.89c.919 0 1.774-.153 2.52-.418.004-.051.004-.106.004-.157v-.175c0-1.051-.59-1.899-1.324-1.899zm0 0" fill="#81d4fa" fill-opacity=".235" stroke-width=".37509412" stroke-linecap="round" stroke-linejoin="round" stroke="#212121"/></svg>
